X:1
T:Title
%%score { ( 1 2 ) | ( 3 4 ) }
L:1/8
Q:1/4=94
M:4/4
K:Eb
V:1 treble nm="Grand Piano"
V:2 treble 
V:3 bass 
V:4 bass 
V:1
 [B,GB]2 [C=A]c [B,=GB]2 [Ge]2 | [Ae]2 d[Dc] [Ac]2 [GB]2 | Bc .[B,DB]2 [B,EG]2 [Ge]2 | %3
w: Adam~Geibel * * * *|||
 [Fd]edc [B,B]4 | [B,GB]2 _G-[Gc] [B,=GB]2 [Ge]2 | [Ae]2 dc [EAc]2 [EGB]2 | %6
w: |||
 .[B,GB]2 .[B,GB]2 de [Gd]2 | d-[B,=Gd] [=Ad]2 G4 | [DB]2 D-[DF] z F[DF][FA] | %9
w: |||
 [Ac]2 [GB][FA] [B,FA]2 [B,EG]2 | [B,GB]2 Bc d2 cd | e2 de f4 | [Ee]-[EAe] [EBd]2 [EAd]2 [Ec]2 | %13
w: ||||
 [Cc]2 z2 z4 | cBAG F2 F2 | [F,CF]2 [F,CE]2[K:treble] [DB]4 | E2 EF E2 D2 | F2 FG F2 E2 | %18
w: |||||
 G2 [FG]2 edcB | =ABc[Af] [_Af]4 | [Ee]-[E-Ae][E_d]-[EGd] [EAd]2 [Ec]2 | =EF[CB]-[CEB] B2 A2 | %22
w: ||||
 FGAB c2 f2 | e2 d-[Ad] [Ge]4 |] %24
w: ||
V:2
 z2 _G2 z4 | z2 A2 z4 | x8 | z4 D2 z2 | z2 .[C=A]2 z4 | z2 A2 z4 | z4 G2 z2 | ._G2 z2 z4 | %8
 z2 .A2 D2 z2 | z2 B,2 z4 | z2 [B,_G]2 z4 | x8 | .G2 z2 z4 | =EF .[CGB]2 [CFB]2 [CFA]2 | x8 | %15
 x4[K:treble] x4 | x8 | x8 | z4 G2 [CG]2 | x8 | .G2 .B2 z4 | [Cc]2 .G2 z4 | x8 | z2 .F2 z4 |] %24
V:3
 E,2 z =A, E,2 [E,B,]2 | [E,C]2 .[E,C]2 [E,E]2 [E,E]2 | [B,DF]2 z A E,2 [C,B,]2 | %3
 z[K:treble] GFE[K:bass] z2 A2 | E,2 z =A, E,2 [E,B,]2 | [E,C]2 CD E,2 E,2 | %6
 z[K:treble] =A z c[K:bass] [D,B,]2 [D,B,]2 | .[D,=A,]2 [D,C]2 [G,B,]4 | %8
 [B,,F,]2 [B,,B,]2 [B,,B,]2 [B,,B,]2 | [B,,B,]2 C,D, E,2 E,2 | %10
 E,2 E,2[K:treble] [F,B,F]2 [F,F]-[F,B,F] | [F,CF]2 [F,F]-[F,CF] [B,DA]4 | E,F,G,E, A,2 A,2 | %13
 C,D, z =E F,2 F,2 | CB,A,G, F,2 F,2 | A,,2 =A,,2 [B,,F,]4 | %16
 [E,G,B,]2 [B,,G,B,]2 [F,A,B,]2 [B,,A,B,]2 | [D,A,B,]2 [B,,A,B,]2 [E,G,B,]2 [B,,G,B,]2 | %18
 [E,B,]2 [D,=B,]2 [C,C][D,B,]E,=E, | [CF]-[G,CF][=A,CF][K:bass][F,E] [B,D]4 | E,F,G,E, A,2 A,2 | %21
 C,D,=E,C, [F,CF]2 [F,CF]2 | F,G,A,B,[K:treble] C2 [A,CF]2 | [B,G]2[K:bass] [B,,B,]2 [E,B,]4 |] %24
V:4
 z2 E,2 z4 | x8 | z2 B,,2 z4 | [F,B,]2[K:treble] [F,=A,]2[K:bass] B,,4 | z2 E,2 z4 | z2 E,2 z4 | %6
 E,2[K:treble] E,2[K:bass] z4 | x8 | x8 | x8 | z4[K:treble] z2 .=A,2 | z2 .B,2 z4 | x8 | %13
 z2 =E,2 z4 | x8 | x8 | x8 | x8 | x8 | .F,2 z2[K:bass] z4 | x8 | x8 | x4[K:treble] x4 | %23
 x2[K:bass] x6 |] %24

